X:1
T: The Dougal Creature
C:
R:Jig
Q:180
K:D
M:6/8
L:1/16
B2|A2F2D2 D2F2G2|A2F2D2 D4B2|A2F2D2 D2F2A2|B2G2E2 E4B2|A2F2D2 D2F2A2|B2c2d2 A2G2F2|G2A2B2 A2B2c2|d2A2F2 D4B2|
A2F2D2 D2F2G2|A2F2D2 D4B2|A2F2D2 D2F2A2|B2G2E2 E4B2|A2F2D2 D2F2A2|B2c2d2 A2G2F2|G2A2B2 A2B2c2|d2A2F2 D4f2|
a2f2d2 d2c2d2|B2c2d2 A2d2f2|a2f2d2 f2e2d2|c2A2A2 A4f2|a2f2d2 d2c2d2|B2c2d2 A2G2F2|G2A2B2 A2B2c2|d2A2F2 D4f2|
a2f2d2 d2c2d2|B2c2d2 A2d2f2|a2f2d2 f2e2d2|c2A2A2 A4f2|a2f2d2 d2c2d2|B2c2d2 A2G2F2|G2A2B2 A2B2c2|d2A2F2 D4||
